X:36
T:Blackhall House Quick Step
C:R. Petrie
S:Petrie's Second Collection of Strathspey Reels and Country Dances &c.
Z:Steve Wyrick , 6/5/04
N:Petrie's Second Collection, page 12
L:1/8
M:6/8
R:Quickstep
K:D
A/G/|F2(D D)FG|AFD DFD|E2A, A,2B,|=C2D E2G|F2(D D)FG|AFD AFD|E2e gec|d3 d2:|
g   |f2d  d2f |d2f agf|e2=c c2e  |=c2e gfe|f2d  d2f |d2f agf|B2e gec|d3 d2g|
     f2d  d2f |d2f agf|e2=c c2e  |=c2e gfe|f2d  g2e |a2f b2g|fed edc|d3 D2|]
